icon/gr/settings-option.svg

<svg xmlns="http://www.w3.org/2000/svg" viewBox="0 0 24 24" height="1em" width="1em">
  <path fill="none" stroke="#000" stroke-width="2" d="M12,9 L12,0 M15,12 L24,12 M0,12 L9,12 M12,24 L12,15 M12,21 C16.9705627,21 21,16.9705627 21,12 C21,7.02943725 16.9705627,3 12,3 C7.02943725,3 3,7.02943725 3,12 C3,16.9705627 7.02943725,21 12,21 Z M3.5,8.5 L1,7.5 M20.5,15.5 L23,16.5 M3,3 L5.5,5.5 M3,3 L5.5,5.5 M18,18 L20.5,20.5 M20.5,3 L18,5.5 M5.5,18 L3,20.5 M12,15 C13.6568542,15 15,13.6568542 15,12 C15,10.3431458 13.6568542,9 12,9 C10.3431458,9 9,10.3431458 9,12 C9,13.6568542 10.3431458,15 12,15 Z M20.5,8.5 L23,7.5 M15.5,3.5 L16.5,1 M15.5,20.5 L16.5,23 M8.5,20.5 L7.5,23 M3.5,15.5 L1,16.5 M8.5,3.5 L7.5,1"/>
</svg>

<svg xmlns="http://www.w3.org/2000/svg" width="24" height="24"><path fill="none" stroke="#000" stroke-width="2" d="M12 9V0m3 12h9M0 12h9m3 12v-9m0 6a9 9 0 1 0 0-18 9 9 0 0 0 0 18ZM3.5 8.5 1 7.5m19.5 8 2.5 1M3 3l2.5 2.5M3 3l2.5 2.5M18 18l2.5 2.5m0-17.5L18 5.5M5.5 18 3 20.5m9-5.5a3 3 0 1 0 0-6 3 3 0 0 0 0 6Zm8.5-6.5 2.5-1m-7.5-4 1-2.5m-1 19.5 1 2.5m-8-2.5-1 2.5m-4-7.5-2.5 1m7.5-13L7.5 1"/></svg>
